html/assets/images/dynamic/business-enabler-7.svg

<svg width="72" height="68" viewBox="0 0 72 68" fill="none" xmlns="http://www.w3.org/2000/svg">
<path d="M20.0905 34.4888H8.9541" stroke="#00999A" stroke-width="2" stroke-linejoin="round"/>
<path d="M63.0455 34.4888H51.9092" stroke="#00999A" stroke-width="2" stroke-linejoin="round"/>
<path d="M1 58.3841C1 54.2796 4.18182 50.3978 8.95455 50.3978V23.7341C4.18182 23.7341 1 27.2182 1 31.3069V58.3841Z" stroke="#00999A" stroke-width="2" stroke-linejoin="round"/>
<path d="M71.0004 58.3841C71.0004 54.2796 67.8186 50.3978 63.0459 50.3978V23.7341C67.8186 23.7341 71.0004 27.2182 71.0004 31.3069V58.3841Z" stroke="#00999A" stroke-width="2" stroke-linejoin="round"/>
<path d="M70.9997 58.3682C70.9997 62.6636 67.4202 66.3068 63.0134 66.3068H9.002C4.59518 66.3068 1.01562 62.6636 1.01562 58.3682" stroke="#00999A" stroke-width="2" stroke-linejoin="round"/>
<path d="M35.9848 12.2161H36.0007C39.5007 12.2161 42.3484 14.8729 42.3484 18.5638C42.3484 22.2547 39.5166 24.9433 36.0166 24.9433H35.953C32.453 24.9433 29.6053 22.2706 29.6212 18.5638C29.6212 14.8729 32.4689 12.2161 35.9689 12.2161H35.9848Z" stroke="#00999A" stroke-width="2" stroke-miterlimit="10"/>
<path d="M36.0009 1C45.61 1 53.3896 8.77955 53.3896 18.3886C53.3896 22.5409 52.785 25.4205 50.4146 29.1909C48.06 32.9614 36.0009 50.4773 36.0009 50.4773C36.0009 50.4773 23.9418 32.9614 21.5873 29.1909C19.2328 25.4205 18.6123 22.5409 18.6123 18.3886C18.6123 8.77955 26.3918 1 36.0009 1Z" stroke="#00999A" stroke-width="2" stroke-miterlimit="10"/>
</svg>

<svg width="72" height="68" fill="none" xmlns="http://www.w3.org/2000/svg"><path d="M20.09 34.489H8.954m54.091 0H51.91M1 58.384c0-4.104 3.182-7.986 7.955-7.986V23.734C4.182 23.734 1 27.218 1 31.307v27.077zm70 0c0-4.104-3.181-7.986-7.954-7.986V23.734c4.773 0 7.954 3.484 7.954 7.573v27.077z" stroke="#00999A" stroke-width="2" stroke-linejoin="round"/><path d="M71 58.368c0 4.296-3.58 7.939-7.987 7.939H9.002c-4.407 0-7.986-3.643-7.986-7.939" stroke="#00999A" stroke-width="2" stroke-linejoin="round"/><path d="M35.985 12.216H36c3.5 0 6.347 2.657 6.347 6.348 0 3.69-2.831 6.38-6.331 6.38h-.064c-3.5 0-6.348-2.673-6.332-6.38 0-3.691 2.848-6.348 6.348-6.348h.016z" stroke="#00999A" stroke-width="2" stroke-miterlimit="10"/><path d="M36 1c9.61 0 17.39 7.78 17.39 17.389 0 4.152-.605 7.032-2.975 10.802C48.06 32.96 36 50.477 36 50.477S23.94 32.961 21.587 29.191c-2.354-3.77-2.975-6.65-2.975-10.802C18.612 8.779 26.392 1 36.001 1z" stroke="#00999A" stroke-width="2" stroke-miterlimit="10"/></svg>
